PORTRA 2_1.xmp
<x:xmpmeta xmlns:x="adobe:ns:meta/" x:xmptk="Adobe XMP Core 7.0-c000 1.000000, 0000/00/00-00:00:00        ">
 <rdf:RDF xmlns:rdf="http://www.w3.org/1999/02/22-rdf-syntax-ns#">
  <rdf:Description rdf:about=""
    xmlns:crs="http://ns.adobe.com/camera-raw-settings/1.0/"
   crs:PresetType="Normal"
   crs:Cluster=""
   crs:UUID="1EA5811C3AF64496B9AE5CC327667794"
   crs:SupportsAmount2="True"
   crs:SupportsAmount="True"
   crs:SupportsColor="True"
   crs:SupportsMonochrome="True"
   crs:SupportsHighDynamicRange="True"
   crs:SupportsNormalDynamicRange="True"
   crs:SupportsSceneReferred="True"
   crs:SupportsOutputReferred="True"
   crs:RequiresRGBTables="False"
   crs:CameraModelRestriction=""
   crs:Copyright=""
   crs:ContactInfo=""
   crs:Version="15.4"
   crs:ProcessVersion="15.4"
   crs:Contrast2012="0"
   crs:Highlights2012="-45"
   crs:Shadows2012="-10"
   crs:Whites2012="+31"
   crs:Blacks2012="+90"
   crs:Texture="+9"
   crs:Clarity2012="0"
   crs:Dehaze="0"
   crs:Vibrance="0"
   crs:Saturation="0"
   crs:ParametricShadows="+3"
   crs:ParametricDarks="-9"
   crs:ParametricLights="+8"
   crs:ParametricHighlights="+5"
   crs:ParametricShadowSplit="25"
   crs:ParametricMidtoneSplit="50"
   crs:ParametricHighlightSplit="75"
   crs:HueAdjustmentRed="-1"
   crs:HueAdjustmentOrange="+1"
   crs:HueAdjustmentYellow="+17"
   crs:HueAdjustmentGreen="+4"
   crs:HueAdjustmentAqua="-2"
   crs:HueAdjustmentBlue="-9"
   crs:HueAdjustmentPurple="+19"
   crs:HueAdjustmentMagenta="-5"
   crs:SaturationAdjustmentRed="+1"
   crs:SaturationAdjustmentOrange="-15"
   crs:SaturationAdjustmentYellow="-23"
   crs:SaturationAdjustmentGreen="-41"
   crs:SaturationAdjustmentAqua="-11"
   crs:SaturationAdjustmentBlue="-6"
   crs:SaturationAdjustmentPurple="-7"
   crs:SaturationAdjustmentMagenta="-6"
   crs:LuminanceAdjustmentRed="+8"
   crs:LuminanceAdjustmentOrange="+14"
   crs:LuminanceAdjustmentYellow="+30"
   crs:LuminanceAdjustmentGreen="+9"
   crs:LuminanceAdjustmentAqua="+2"
   crs:LuminanceAdjustmentBlue="-7"
   crs:LuminanceAdjustmentPurple="+1"
   crs:LuminanceAdjustmentMagenta="+2"
   crs:SplitToningShadowHue="29"
   crs:SplitToningShadowSaturation="5"
   crs:SplitToningHighlightHue="312"
   crs:SplitToningHighlightSaturation="11"
   crs:SplitToningBalance="-92"
   crs:ColorGradeMidtoneHue="0"
   crs:ColorGradeMidtoneSat="0"
   crs:ColorGradeShadowLum="-1"
   crs:ColorGradeMidtoneLum="0"
   crs:ColorGradeHighlightLum="0"
   crs:ColorGradeBlending="71"
   crs:ColorGradeGlobalHue="0"
   crs:ColorGradeGlobalSat="0"
   crs:ColorGradeGlobalLum="0"
   crs:LensProfileEnable="1"
   crs:GrainAmount="9"
   crs:GrainSize="19"
   crs:GrainFrequency="21"
   crs:PostCropVignetteAmount="0"
   crs:ShadowTint="-15"
   crs:RedHue="0"
   crs:RedSaturation="0"
   crs:GreenHue="0"
   crs:GreenSaturation="0"
   crs:BlueHue="0"
   crs:BlueSaturation="0"
   crs:CurveRefineSaturation="100"
   crs:OverrideLookVignette="False"
   crs:ToneCurveName2012="Custom"
   crs:LensProfileSetup="Auto"
   crs:HasSettings="True"
   crs:CropConstrainToWarp="0">
   <crs:Name>
    <rdf:Alt>
     <rdf:li xml:lang="x-default">    PORTRA 2</rdf:li>
    </rdf:Alt>
   </crs:Name>
   <crs:ShortName>
    <rdf:Alt>
     <rdf:li xml:lang="x-default"/>
    </rdf:Alt>
   </crs:ShortName>
   <crs:SortName>
    <rdf:Alt>
     <rdf:li xml:lang="x-default"/>
    </rdf:Alt>
   </crs:SortName>
   <crs:Group>
    <rdf:Alt>
     <rdf:li xml:lang="x-default">REFINED x Tec Petaja Presets 2.0</rdf:li>
    </rdf:Alt>
   </crs:Group>
   <crs:Description>
    <rdf:Alt>
     <rdf:li xml:lang="x-default"/>
    </rdf:Alt>
   </crs:Description>
   <crs:ToneCurvePV2012>
    <rdf:Seq>
     <rdf:li>0, 3</rdf:li>
     <rdf:li>34, 30</rdf:li>
     <rdf:li>116, 133</rdf:li>
     <rdf:li>208, 215</rdf:li>
     <rdf:li>255, 247</rdf:li>
    </rdf:Seq>
   </crs:ToneCurvePV2012>
   <crs:ToneCurvePV2012Red>
    <rdf:Seq>
     <rdf:li>0, 9</rdf:li>
     <rdf:li>123, 126</rdf:li>
     <rdf:li>254, 252</rdf:li>
    </rdf:Seq>
   </crs:ToneCurvePV2012Red>
   <crs:ToneCurvePV2012Green>
    <rdf:Seq>
     <rdf:li>0, 0</rdf:li>
     <rdf:li>119, 123</rdf:li>
     <rdf:li>255, 255</rdf:li>
    </rdf:Seq>
   </crs:ToneCurvePV2012Green>
   <crs:ToneCurvePV2012Blue>
    <rdf:Seq>
     <rdf:li>0, 18</rdf:li>
     <rdf:li>130, 127</rdf:li>
     <rdf:li>253, 255</rdf:li>
    </rdf:Seq>
   </crs:ToneCurvePV2012Blue>
   <crs:Look>
    <rdf:Description
     crs:Name="Adobe Color"
     crs:Amount="1"
     crs:UUID="B952C231111CD8E0ECCF14B86BAA7077"
     crs:SupportsAmount="false"
     crs:SupportsMonochrome="false"
     crs:SupportsOutputReferred="false"
     crs:Stubbed="true">
    <crs:Group>
     <rdf:Alt>
      <rdf:li xml:lang="x-default">Profiles</rdf:li>
     </rdf:Alt>
    </crs:Group>
    </rdf:Description>
   </crs:Look>
  </rdf:Description>
 </rdf:RDF>
</x:xmpmeta>
